X: 41
T: No_36_Woman's_Dance_Song_(a).krn
N: Derived from No_36_Woman's_Dance_Song_(a).krn
%%abc-version 2.0
%%abcx-abcm2ps-target-version 5.9.1 (29 Sep 2008)
%%abc-creator hum2abc beta
%%abcx-conversion-date 2019/03/15 08:36:49
%%humdrum-veritas 2868318332
%%humdrum-veritas-data 66040721
%%linebreak <none>
%%barnumbers 0
L: 1/8
M: 2/4
%%staves {1 2}
V: 1 clef=treble
V: 2 clef=bass
K: Bb
[V:1] [K:clef=treble][M:2/4]B/B3/B2 ||  
[V:2] [K:clef=bass][M:2/4](3!accent!G,, z G,, (3!accent!G,, z G,, ||  
[V:1] [M:3/4]G/F/F/E/ EE EE ||  
[V:2] [M:3/4](3!accent!G,, z G,, (3!accent!G,, z G,, (3!accent!G,, z G,, ||  
[V:1] [M:2/4]F2F3/E/ ||  
[V:2] [M:2/4]z4 ||  
[V:1] [M:3/4]F/E/E/C/ B,B, B,B, ||  
[V:2] [M:3/4]z6 ||  
[V:1] [M:2/4]DD/C/ DC | 
[V:2] [M:2/4]z4 | 
[V:1] D/C/C/B,/ B,B,[K:clef=bass] | 
[V:2] z4 | 
[V:1] C/B,/B, B,B, | 
[V:2] z4 | 
[V:1] C/B,/B, B,B, | 
[V:2] z4 | 
[V:1] B,4 ||  
[V:2] z4 ||  
[V:1] [M:3/4]F2F2F3/E/ | 
[V:2] [M:3/4]z6 | 
[V:1] F/E/E/C/ B,B, B,B, ||  
[V:2] z6 ||  
[V:1] [M:2/4]DD/C/ D/C/C/B,/ | 
[V:2] [M:2/4]z4 | 
[V:1] C/B,/B, B,B, | 
[V:2] z4 | 
[V:1] C/B,/B, B,B, | 
[V:2] z4 | 
[V:1] C/B,/B, B,B, | 
[V:2] z4 | 
[V:1] B,4 |]  
[V:2] z4 |]  



